; G-Code generated by Simplify3D(R) Version 3.0.2
; Mar 9, 2016 at 12:41:31 PM
; Settings Summary
;   processName,Process1
;   applyToModels,20mm_hollow_cube
;   profileName,Hyrel3D (modified)
;   profileVersion,2016-03-08 12:28:47
;   baseProfile,Default
;   printMaterial,PLA
;   printQuality,Medium
;   printExtruders,
;   extruderName,Extruder 1
;   extruderToolheadNumber,0
;   extruderDiameter,0.4
;   extruderAutoWidth,0
;   extruderWidth,0.4
;   extrusionMultiplier,0.9
;   extruderUseRetract,1
;   extruderRetractionDistance,1
;   extruderExtraRestartDistance,0
;   extruderRetractionZLift,0
;   extruderRetractionSpeed,1800
;   extruderUseCoasting,0
;   extruderCoastingDistance,0.2
;   extruderUseWipe,0
;   extruderWipeDistance,5
;   primaryExtruder,0
;   layerHeight,0.2
;   topSolidLayers,3
;   bottomSolidLayers,3
;   perimeterOutlines,2
;   printPerimetersInsideOut,1
;   startPointOption,2
;   startPointOriginX,0
;   startPointOriginY,0
;   startPointOriginZ,300
;   sequentialIslands,0
;   spiralVaseMode,0
;   firstLayerHeightPercentage,90
;   firstLayerWidthPercentage,100
;   firstLayerUnderspeed,0.5
;   useRaft,0
;   raftExtruder,0
;   raftLayers,3
;   raftOffset,3
;   raftSeparationDistance,0.14
;   raftInfill,85
;   disableRaftBaseLayers,0
;   useSkirt,1
;   skirtExtruder,0
;   skirtLayers,1
;   skirtOutlines,2
;   skirtOffset,4
;   usePrimePillar,0
;   primePillarExtruder,999
;   primePillarWidth,12
;   primePillarLocation,7
;   primePillarSpeedMultiplier,1
;   useOozeShield,0
;   oozeShieldExtruder,999
;   oozeShieldOffset,2
;   oozeShieldOutlines,1
;   oozeShieldSidewallShape,1
;   oozeShieldSidewallAngle,30
;   oozeShieldSpeedMultiplier,1
;   infillExtruder,0
;   internalInfillPattern,Rectilinear
;   externalInfillPattern,Rectilinear
;   infillPercentage,21
;   outlineOverlapPercentage,15
;   infillExtrusionWidthPercentage,100
;   minInfillLength,5
;   infillLayerInterval,1
;   infillAngles,45,-45
;   overlapInfillAngles,0
;   generateSupport,0
;   supportExtruder,0
;   supportInfillPercentage,30
;   supportExtraInflation,0
;   denseSupportLayers,0
;   denseSupportInfillPercentage,70
;   supportLayerInterval,1
;   supportHorizontalPartOffset,0.3
;   supportUpperSeparationLayers,1
;   supportLowerSeparationLayers,1
;   supportType,0
;   supportGridSpacing,4
;   maxOverhangAngle,45
;   supportAngles,0
;   temperatureName,Extruder 1 Temperature,Heated Bed
;   temperatureNumber,0,0
;   temperatureSetpointCount,1,1
;   temperatureSetpointLayers,1,1
;   temperatureSetpointTemperatures,210,85
;   temperatureStabilizeAtStartup,1,1
;   temperatureHeatedBed,0,1
;   temperatureRelayBetweenLayers,0,0
;   temperatureRelayBetweenLoops,0,0
;   fanLayers,1,2
;   fanSpeeds,0,100
;   blipFanToFullPower,0
;   adjustSpeedForCooling,1
;   minSpeedLayerTime,15
;   minCoolingSpeedSlowdown,20
;   increaseFanForCooling,0
;   minFanLayerTime,45
;   maxCoolingFanSpeed,100
;   increaseFanForBridging,0
;   bridgingFanSpeed,100
;   use5D,1
;   relativeEdistances,0
;   allowEaxisZeroing,1
;   independentExtruderAxes,0
;   includeM10123,0
;   stickySupport,1
;   applyToolheadOffsets,0
;   gcodeXoffset,0
;   gcodeYoffset,0
;   gcodeZoffset,0
;   overrideMachineDefinition,0
;   machineTypeOverride,0
;   strokeXoverride,255
;   strokeYoverride,255
;   strokeZoverride,200
;   originOffsetXoverride,0
;   originOffsetYoverride,0
;   originOffsetZoverride,0
;   homeXdirOverride,-1
;   homeYdirOverride,-1
;   homeZdirOverride,-1
;   flipXoverride,1
;   flipYoverride,-1
;   flipZoverride,1
;   toolheadOffsets,0,0|0,0|0,0|0,0|0,0|0,0
;   overrideFirmwareConfiguration,0
;   firmwareTypeOverride,RepRap (Marlin/Repetier/Sprinter)
;   GPXconfigOverride,r2
;   baudRateOverride,115200
;   overridePrinterModels,0
;   printerModelsOverride
;   startingGcode,;,; Starting Script - Start,;,M107 ; disable fan,M190 S[bed0_temperature] ; set bed temperature,M104 T10  S[extruder0_temperature],G21     ; use millimeters,G90     ; absolute coordinates,G0 Z5 ; lift head to avoid collisions,G28 X0 Y0 ; home X and Y,G92 X0 Y0 ; reset origin: X and Y,G0 X0 Y0   ; move to desired origin,G92 X0 Y0 ; reset origin: X and Y,M83          ; relative extruder coordinates,M109 S230  ;wait for temperture to come up.,M756 S0.18  ;set flowfor the first layer please,;,G21 ; set units to millimeters,G90 ; use absolute coordinates,M82 ; use absolute distances for extrusion,;,; Starting Script - Stop,;
;   layerChangeGcode,;,; Layer Change Script - Start,;,M790 ;execute any new layer actions,;,; Layer Change Script - Stop,;
;   retractionGcode,
;   toolChangeGcode,
;   endingGcode,;,; Ending Script - Start,;,M107 ; disable fan,M107 T10  ; turn off fans and lasers,M104 S0    ; turn off temperature,M140 S0   ;turn off the hot bed.,G91            ;,G1 Z5.0      ; Drop bed 5mm for extra clearance ,G90            ; absolute,G28 X0 Y0  ; home X axis,G92 X0 Y0 ; confirm we are at zero,M84            ; disable motors,M30           ; End ofprogram,;,; Ending Script - Stop,;
;   createX3G,0
;   celebration,0
;   celebrationSong,Random Song
;   createMB5G,0
;   postProcessing,{REPLACE ";T0" ";;T0"}
;   defaultSpeed,3600
;   outlineUnderspeed,0.5
;   solidInfillUnderspeed,0.8
;   supportUnderspeed,0.8
;   rapidXYspeed,4800
;   rapidZspeed,1000
;   minBridgingArea,50
;   bridgingExtraInflation,0
;   bridgingExtrusionMultiplier,1
;   bridgingSpeedMultiplier,1
;   filamentDiameter,1.75
;   filamentPricePerKg,46
;   filamentDensity,1.25
;   useMinPrintHeight,0
;   minPrintHeight,0
;   useMaxPrintHeight,0
;   maxPrintHeight,0
;   useDiaphragm,0
;   diaphragmLayerInterval,20
;   robustSlicing,1
;   mergeAllIntoSolid,0
;   onlyRetractWhenCrossingOutline,1
;   retractBetweenLayers,1
;   useRetractionMinTravel,0
;   retractionMinTravel,3
;   retractWhileWiping,0
;   onlyWipeOutlines,1
;   avoidCrossingOutline,0
;   maxMovementDetourFactor,3
;   toolChangeRetractionDistance,12
;   toolChangeExtraRestartDistance,-0.5
;   toolChangeRetractionSpeed,600
;   allowThinWallGapFill,1
;   thinWallAllowedOverlapPercentage,10
;   horizontalSizeCompensation,0
G90
M82
M106 S0
;
; Starting Script - Start
;
M107 ; disable fan
M190 S85 ; set bed temperature
M104 T10  S210
G21     ; use millimeters
G90     ; absolute coordinates
G0 Z5 ; lift head to avoid collisions
G28 X0 Y0 ; home X and Y
G92 X0 Y0 ; reset origin: X and Y
G0 X0 Y0   ; move to desired origin
G92 X0 Y0 ; reset origin: X and Y
M83          ; relative extruder coordinates
M109 S230  ;wait for temperture to come up.
M756 S0.18  ;set flowfor the first layer please
;
G21 ; set units to millimeters
G90 ; use absolute coordinates
M82 ; use absolute distances for extrusion
;
; Starting Script - Stop
;
G92 E0
G1 E-1.0000 F1800
G1 Z0.180 F1000
; layer 1, Z = 0.18
;
; Layer Change Script - Start
;
M790 ;execute any new layer actions
;
; Layer Change Script - Stop
;
;T0
; tool H0.200 W0.400
; skirt
G1 X112.991 Y115.503 F4800
G1 E0.0000 F540
G92 E0
G1 X115.503 Y112.991 E0.1063 F1800
G1 X115.724 Y112.900 E0.1135
G1 X139.276 Y112.900 E0.8185
G1 X139.497 Y112.991 E0.8256
G1 X142.009 Y115.503 E0.9320
G1 X142.100 Y115.724 E0.9391
G1 X142.100 Y139.276 E1.6442
G1 X142.009 Y139.497 E1.6513
G1 X139.497 Y142.009 E1.7576
G1 X139.276 Y142.100 E1.7648
G1 X115.724 Y142.100 E2.4698
G1 X115.503 Y142.009 E2.4769
G1 X112.991 Y139.497 E2.5833
G1 X112.900 Y139.276 E2.5904
G1 X112.900 Y115.724 E3.2955
G1 X112.991 Y115.503 E3.3026
G1 X113.330 Y115.730 F4800
G92 E0
G1 X115.730 Y113.330 E0.1016 F1800
G1 X115.803 Y113.300 E0.1040
G1 X139.197 Y113.300 E0.8042
G1 X139.270 Y113.330 E0.8066
G1 X141.670 Y115.730 E0.9082
G1 X141.700 Y115.803 E0.9106
G1 X141.700 Y139.197 E1.6108
G1 X141.670 Y139.270 E1.6132
G1 X139.270 Y141.670 E1.7148
G1 X139.197 Y141.700 E1.7171
G1 X115.803 Y141.700 E2.4174
G1 X115.730 Y141.670 E2.4198
G1 X113.330 Y139.270 E2.5214
G1 X113.300 Y139.197 E2.5237
G1 X113.300 Y115.803 E3.2240
G1 X113.330 Y115.730 E3.2264
G92 E0
G1 E-1.0000 F1800
; inner perimeter
G1 X118.100 Y118.100 F4800
G1 E0.0000 F1800
G92 E0
G1 X136.900 Y118.100 E0.5628 F1350
G1 X136.900 Y136.900 E1.1255
G1 X118.100 Y136.900 E1.6883
G1 X118.100 Y118.100 E2.2510
; outer perimeter
G1 X117.700 Y117.700 F4800
G92 E0
G1 X137.300 Y117.700 E0.5867 F900
G1 X137.300 Y137.300 E1.1734
G1 X117.700 Y137.300 E1.7601
G1 X117.700 Y117.700 E2.3468
; solid layer
G1 X118.440 Y118.458 F4800
G92 E0
G1 X118.458 Y118.440 E0.0008 F1440
G1 X119.024 Y118.440 E0.0177
G1 X118.440 Y119.024 E0.0424
G1 X118.440 Y119.589 E0.0593
G1 X119.589 Y118.440 E0.1080
G1 X120.155 Y118.440 E0.1249
G1 X118.440 Y120.155 E0.1975
G1 X118.440 Y120.721 E0.2145
G1 X120.721 Y118.440 E0.3110
G1 X121.287 Y118.440 E0.3280
G1 X118.440 Y121.287 E0.4485
G1 X118.440 Y121.852 E0.4654
G1 X121.852 Y118.440 E0.6099
G1 X122.418 Y118.440 E0.6268
G1 X118.440 Y122.418 E0.7952
G1 X118.440 Y122.984 E0.8121
G1 X122.984 Y118.440 E1.0045
G1 X123.549 Y118.440 E1.0214
G1 X118.440 Y123.549 E1.2377
G1 X118.440 Y124.115 E1.2546
G1 X124.115 Y118.440 E1.4949
G1 X124.681 Y118.440 E1.5118
G1 X118.440 Y124.681 E1.7760
G1 X118.440 Y125.246 E1.7929
G1 X125.246 Y118.440 E2.0810
G1 X125.812 Y118.440 E2.0980
G1 X118.440 Y125.812 E2.4101
G1 X118.440 Y126.378 E2.4270
G1 X126.378 Y118.440 E2.7630
G1 X126.943 Y118.440 E2.7800
G1 X118.440 Y126.943 E3.1399
G1 X118.440 Y127.509 E3.1569
G1 X127.509 Y118.440 E3.5408
G1 X128.075 Y118.440 E3.5577
G1 X118.440 Y128.075 E3.9656
G1 X118.440 Y128.640 E3.9825
G1 X128.640 Y118.440 E4.4143
G1 X129.206 Y118.440 E4.4313
G1 X118.440 Y129.206 E4.8870
G1 X118.440 Y129.772 E4.9040
G1 X129.772 Y118.440 E5.3837
G1 X130.337 Y118.440 E5.4006
G1 X118.440 Y130.337 E5.9043
G1 X118.440 Y130.903 E5.9212
G1 X130.903 Y118.440 E6.4488
G1 X131.469 Y118.440 E6.4658
G1 X118.440 Y131.469 E7.0173
G1 X118.440 Y132.035 E7.0342
G1 X132.035 Y118.440 E7.6097
G1 X132.600 Y118.440 E7.6267
G1 X118.440 Y132.600 E8.2261
G1 X118.440 Y133.166 E8.2431
G1 X133.166 Y118.440 E8.8665
G1 X133.732 Y118.440 E8.8834
G1 X118.440 Y133.732 E9.5307
G1 X118.440 Y134.297 E9.5477
G1 X134.297 Y118.440 E10.2190
G1 X134.863 Y118.440 E10.2359
G1 X118.440 Y134.863 E10.9311
G1 X118.440 Y135.429 E10.9481
G1 X135.429 Y118.440 E11.6672
G1 X135.994 Y118.440 E11.6842
G1 X118.440 Y135.994 E12.4273
G1 X118.440 Y136.560 E12.4442
G1 X118.440 Y136.560 E12.4442
G1 X136.560 Y118.440 E13.2113
G1 X136.560 Y119.006 E13.2283
G1 X119.006 Y136.560 E13.9714
G1 X119.571 Y136.560 E13.9883
G1 X136.560 Y119.571 E14.7075
G1 X136.560 Y120.137 E14.7244
G1 X120.137 Y136.560 E15.4197
G1 X120.703 Y136.560 E15.4366
G1 X136.560 Y120.703 E16.1079
G1 X136.560 Y121.268 E16.1248
G1 X121.268 Y136.560 E16.7722
G1 X121.834 Y136.560 E16.7891
G1 X136.560 Y121.834 E17.4125
G1 X136.560 Y122.400 E17.4294
G1 X122.400 Y136.560 E18.0289
G1 X122.966 Y136.560 E18.0458
G1 X136.560 Y122.966 E18.6213
G1 X136.560 Y123.531 E18.6382
G1 X123.531 Y136.560 E19.1898
G1 X124.097 Y136.560 E19.2067
G1 X136.560 Y124.097 E19.7343
G1 X136.560 Y124.663 E19.7513
G1 X124.663 Y136.560 E20.2549
G1 X125.228 Y136.560 E20.2718
G1 X136.560 Y125.228 E20.7516
G1 X136.560 Y125.794 E20.7685
G1 X125.794 Y136.560 E21.2242
G1 X126.360 Y136.560 E21.2412
G1 X136.560 Y126.360 E21.6730
G1 X136.560 Y126.925 E21.6899
G1 X126.925 Y136.560 E22.0978
G1 X127.491 Y136.560 E22.1147
G1 X136.560 Y127.491 E22.4987
G1 X136.560 Y128.057 E22.5156
G1 X128.057 Y136.560 E22.8756
G1 X128.622 Y136.560 E22.8925
G1 X136.560 Y128.622 E23.2285
G1 X136.560 Y129.188 E23.2454
G1 X129.188 Y136.560 E23.5575
G1 X129.754 Y136.560 E23.5745
G1 X136.560 Y129.754 E23.8626
G1 X136.560 Y130.319 E23.8795
G1 X130.319 Y136.560 E24.1437
G1 X130.885 Y136.560 E24.1606
G1 X136.560 Y130.885 E24.4009
G1 X136.560 Y131.451 E24.4178
G1 X131.451 Y136.560 E24.6341
G1 X132.016 Y136.560 E24.6510
G1 X136.560 Y132.016 E24.8434
G1 X136.560 Y132.582 E24.8603
G1 X132.582 Y136.560 E25.0287
G1 X133.148 Y136.560 E25.0456
G1 X136.560 Y133.148 E25.1901
G1 X136.560 Y133.714 E25.2070
G1 X133.714 Y136.560 E25.3275
G1 X134.279 Y136.560 E25.3445
G1 X136.560 Y134.279 E25.4410
G1 X136.560 Y134.845 E25.4579
G1 X134.845 Y136.560 E25.5305
G1 X135.411 Y136.560 E25.5475
G1 X136.560 Y135.411 E25.5961
G1 X136.560 Y135.976 E25.6131
G1 X135.976 Y136.560 E25.6378
G1 X136.542 Y136.560 E25.6547
G1 X136.560 Y136.542 E25.6555
G92 E0
G1 E-1.0000 F1800
; layer 2, Z = 0.38
M106 S255
;
; Layer Change Script - Start
;
M790 ;execute any new layer actions
;
; Layer Change Script - Stop
;
; inner perimeter
G1 X136.900 Y136.900 F4800
G1 Z0.380 F1000
G1 E0.0000 F1800
G92 E0
G1 X118.100 Y136.900 E0.5628 F2700
G1 X118.100 Y118.100 E1.1255
G1 X136.900 Y118.100 E1.6883
G1 X136.900 Y136.900 E2.2510
; outer perimeter
G1 X137.300 Y137.300 F4800
G92 E0
G1 X117.700 Y137.300 E0.5867 F1800
G1 X117.700 Y117.700 E1.1734
G1 X137.300 Y117.700 E1.7601
G1 X137.300 Y137.300 E2.3468
; solid layer
G1 X118.458 Y136.560 F4800
G92 E0
G1 X118.440 Y136.542 E0.0008 F2880
G1 X118.440 Y135.976 E0.0177
G1 X119.024 Y136.560 E0.0424
G1 X119.589 Y136.560 E0.0593
G1 X118.440 Y135.411 E0.1080
G1 X118.440 Y134.845 E0.1249
G1 X120.155 Y136.560 E0.1975
G1 X120.721 Y136.560 E0.2145
G1 X118.440 Y134.279 E0.3110
G1 X118.440 Y133.713 E0.3280
G1 X121.287 Y136.560 E0.4485
G1 X121.852 Y136.560 E0.4654
G1 X118.440 Y133.148 E0.6099
G1 X118.440 Y132.582 E0.6268
G1 X122.418 Y136.560 E0.7952
G1 X122.984 Y136.560 E0.8121
G1 X118.440 Y132.016 E1.0045
G1 X118.440 Y131.451 E1.0214
G1 X123.549 Y136.560 E1.2377
G1 X124.115 Y136.560 E1.2546
G1 X118.440 Y130.885 E1.4949
G1 X118.440 Y130.319 E1.5118
G1 X124.681 Y136.560 E1.7760
G1 X125.246 Y136.560 E1.7929
G1 X118.440 Y129.754 E2.0810
G1 X118.440 Y129.188 E2.0980
G1 X125.812 Y136.560 E2.4101
G1 X126.378 Y136.560 E2.4270
G1 X118.440 Y128.622 E2.7630
G1 X118.440 Y128.057 E2.7799
G1 X126.943 Y136.560 E3.1399
G1 X127.509 Y136.560 E3.1569
G1 X118.440 Y127.491 E3.5408
G1 X118.440 Y126.925 E3.5577
G1 X128.075 Y136.560 E3.9656
G1 X128.640 Y136.560 E3.9825
G1 X118.440 Y126.360 E4.4143
G1 X118.440 Y125.794 E4.4313
G1 X129.206 Y136.560 E4.8870
G1 X129.772 Y136.560 E4.9040
G1 X118.440 Y125.228 E5.3837
G1 X118.440 Y124.663 E5.4006
G1 X130.337 Y136.560 E5.9043
G1 X130.903 Y136.560 E5.9212
G1 X118.440 Y124.097 E6.4488
G1 X118.440 Y123.531 E6.4657
G1 X131.469 Y136.560 E7.0173
G1 X132.035 Y136.560 E7.0342
G1 X118.440 Y122.965 E7.6097
G1 X118.440 Y122.400 E7.6267
G1 X132.600 Y136.560 E8.2261
G1 X133.166 Y136.560 E8.2430
G1 X118.440 Y121.834 E8.8664
G1 X118.440 Y121.268 E8.8834
G1 X133.732 Y136.560 E9.5307
G1 X134.297 Y136.560 E9.5476
G1 X118.440 Y120.703 E10.2189
G1 X118.440 Y120.137 E10.2359
G1 X134.863 Y136.560 E10.9311
G1 X135.429 Y136.560 E10.9480
G1 X118.440 Y119.571 E11.6672
G1 X118.440 Y119.006 E11.6842
G1 X135.994 Y136.560 E12.4273
G1 X136.560 Y136.560 E12.4442
G1 X136.560 Y136.560 E12.4442
G1 X118.440 Y118.440 E13.2113
G1 X119.006 Y118.440 E13.2282
G1 X136.560 Y135.994 E13.9714
G1 X136.560 Y135.429 E13.9883
G1 X119.571 Y118.440 E14.7075
G1 X120.137 Y118.440 E14.7244
G1 X136.560 Y134.863 E15.4196
G1 X136.560 Y134.297 E15.4366
G1 X120.703 Y118.440 E16.1079
G1 X121.268 Y118.440 E16.1248
G1 X136.560 Y133.732 E16.7721
G1 X136.560 Y133.166 E16.7891
G1 X121.834 Y118.440 E17.4125
G1 X122.400 Y118.440 E17.4294
G1 X136.560 Y132.600 E18.0288
G1 X136.560 Y132.035 E18.0458
G1 X122.965 Y118.440 E18.6213
G1 X123.531 Y118.440 E18.6382
G1 X136.560 Y131.469 E19.1898
G1 X136.560 Y130.903 E19.2067
G1 X124.097 Y118.440 E19.7343
G1 X124.663 Y118.440 E19.7512
G1 X136.560 Y130.337 E20.2549
G1 X136.560 Y129.772 E20.2718
G1 X125.228 Y118.440 E20.7515
G1 X125.794 Y118.440 E20.7685
